static/img/kroki/39255561c0d8cfcacdaca9df4113ba3c.svg

<?xml version="1.0" encoding="us-ascii" standalone="no"?><svg xmlns="http://www.w3.org/2000/svg" xmlns:xlink="http://www.w3.org/1999/xlink" contentStyleType="text/css" height="252px" preserveAspectRatio="none" style="width:349px;height:252px;" version="1.1" viewBox="0 0 349 252" width="349px" zoomAndPan="magnify"><defs/><g><!--class aws_account--><g id="elem_aws_account"><rect codeLine="22" fill="#3D176E" height="39.7891" id="aws_account" rx="2.5" ry="2.5" style="stroke:#000D19;stroke-width:0.5;" width="149" x="93" y="106.79"/><ellipse cx="108" cy="126.6845" fill="#ADD1B2" rx="11" ry="11" style="stroke:#181818;stroke-width:1.0;"/><path d="M110.9688,132.3252 Q110.3906,132.622 109.75,132.7627 Q109.1094,132.9189 108.4063,132.9189 Q105.9063,132.9189 104.5781,131.2783 Q103.2656,129.622 103.2656,126.497 Q103.2656,123.372 104.5781,121.7158 Q105.9063,120.0595 108.4063,120.0595 Q109.1094,120.0595 109.75,120.2158 Q110.4063,120.372 110.9688,120.6689 L110.9688,123.3877 Q110.3438,122.8095 109.75,122.5439 Q109.1563,122.2627 108.5313,122.2627 Q107.1875,122.2627 106.5,123.3408 Q105.8125,124.4033 105.8125,126.497 Q105.8125,128.5908 106.5,129.6689 Q107.1875,130.7314 108.5313,130.7314 Q109.1563,130.7314 109.75,130.4658 Q110.3438,130.1845 110.9688,129.6064 L110.9688,132.3252 Z " fill="#000000"/><text fill="#D9B8FF" font-family="Helvetica" font-size="17" lengthAdjust="spacing" textLength="107" x="127" y="132.5698">aws_account</text></g><!--class aws_region--><g id="elem_aws_region"><rect codeLine="24" fill="#3D176E" height="39.7891" id="aws_region" rx="2.5" ry="2.5" style="stroke:#000D19;stroke-width:0.5;" width="137" x="7" y="206.58"/><ellipse cx="22" cy="226.4745" fill="#ADD1B2" rx="11" ry="11" style="stroke:#181818;stroke-width:1.0;"/><path d="M24.9688,232.1152 Q24.3906,232.412 23.75,232.5527 Q23.1094,232.7089 22.4063,232.7089 Q19.9063,232.7089 18.5781,231.0683 Q17.2656,229.412 17.2656,226.287 Q17.2656,223.162 18.5781,221.5058 Q19.9063,219.8495 22.4063,219.8495 Q23.1094,219.8495 23.75,220.0058 Q24.4063,220.162 24.9688,220.4589 L24.9688,223.1777 Q24.3438,222.5995 23.75,222.3339 Q23.1563,222.0527 22.5313,222.0527 Q21.1875,222.0527 20.5,223.1308 Q19.8125,224.1933 19.8125,226.287 Q19.8125,228.3808 20.5,229.4589 Q21.1875,230.5214 22.5313,230.5214 Q23.1563,230.5214 23.75,230.2558 Q24.3438,229.9745 24.9688,229.3964 L24.9688,232.1152 Z " fill="#000000"/><text fill="#D9B8FF" font-family="Helvetica" font-size="17" lengthAdjust="spacing" textLength="95" x="41" y="232.3598">aws_region</text></g><!--class aws_root_user--><g id="elem_aws_root_user"><rect codeLine="26" fill="#3D176E" height="39.7891" id="aws_root_user" rx="2.5" ry="2.5" style="stroke:#000D19;stroke-width:0.5;" width="163" x="179" y="206.58"/><ellipse cx="194" cy="226.4745" fill="#ADD1B2" rx="11" ry="11" style="stroke:#181818;stroke-width:1.0;"/><path d="M196.9688,232.1152 Q196.3906,232.412 195.75,232.5527 Q195.1094,232.7089 194.4063,232.7089 Q191.9063,232.7089 190.5781,231.0683 Q189.2656,229.412 189.2656,226.287 Q189.2656,223.162 190.5781,221.5058 Q191.9063,219.8495 194.4063,219.8495 Q195.1094,219.8495 195.75,220.0058 Q196.4063,220.162 196.9688,220.4589 L196.9688,223.1777 Q196.3438,222.5995 195.75,222.3339 Q195.1563,222.0527 194.5313,222.0527 Q193.1875,222.0527 192.5,223.1308 Q191.8125,224.1933 191.8125,226.287 Q191.8125,228.3808 192.5,229.4589 Q193.1875,230.5214 194.5313,230.5214 Q195.1563,230.5214 195.75,230.2558 Q196.3438,229.9745 196.9688,229.3964 L196.9688,232.1152 Z " fill="#000000"/><text fill="#D9B8FF" font-family="Helvetica" font-size="17" lengthAdjust="spacing" textLength="121" x="213" y="232.3598">aws_root_user</text></g><!--class aws_s3_account_settings--><g id="elem_aws_s3_account_settings"><rect codeLine="28" fill="#3D176E" height="39.7891" id="aws_s3_account_settings" rx="2.5" ry="2.5" style="stroke:#000D19;stroke-width:0.5;" width="252" x="41.5" y="7"/><ellipse cx="56.5" cy="26.8945" fill="#ADD1B2" rx="11" ry="11" style="stroke:#181818;stroke-width:1.0;"/><path d="M59.4688,32.5352 Q58.8906,32.832 58.25,32.9727 Q57.6094,33.1289 56.9063,33.1289 Q54.4063,33.1289 53.0781,31.4883 Q51.7656,29.832 51.7656,26.707 Q51.7656,23.582 53.0781,21.9258 Q54.4063,20.2695 56.9063,20.2695 Q57.6094,20.2695 58.25,20.4258 Q58.9063,20.582 59.4688,20.8789 L59.4688,23.5977 Q58.8438,23.0195 58.25,22.7539 Q57.6563,22.4727 57.0313,22.4727 Q55.6875,22.4727 55,23.5508 Q54.3125,24.6133 54.3125,26.707 Q54.3125,28.8008 55,29.8789 Q55.6875,30.9414 57.0313,30.9414 Q57.6563,30.9414 58.25,30.6758 Q58.8438,30.3945 59.4688,29.8164 L59.4688,32.5352 Z " fill="#000000"/><text fill="#D9B8FF" font-family="Helvetica" font-size="17" lengthAdjust="spacing" textLength="210" x="75.5" y="32.7798">aws_s3_account_settings</text></g><!--link aws_account to aws_region--><g id="link_aws_account_aws_region"><path codeLine="30" d="M149.32,147.01 C134.45,162.81 113.37,185.22 97.54,202.05 " fill="none" id="aws_account-to-aws_region" style="stroke:#1A83AF;stroke-width:2.0;"/><polygon fill="#1A83AF" points="94.64,205.2,103.7211,201.3877,98.0668,201.559,97.8955,195.9047,94.64,205.2" style="stroke:#1A83AF;stroke-width:2.0;"/></g><!--link aws_account to aws_root_user--><g id="link_aws_account_aws_root_user"><path codeLine="31" d="M185.87,147.01 C200.9,162.81 222.21,185.22 238.22,202.05 " fill="none" id="aws_account-to-aws_root_user" style="stroke:#1A83AF;stroke-width:2.0;"/><polygon fill="#1A83AF" points="241.16,205.2,237.867,195.918,237.7185,201.5729,232.0636,201.4244,241.16,205.2" style="stroke:#1A83AF;stroke-width:2.0;"/></g><!--link aws_s3_account_settings to aws_account--><g id="link_aws_s3_account_settings_aws_account"><path codeLine="32" d="M167.5,47.22 C167.5,62.49 167.5,83.92 167.5,100.53 " fill="none" id="aws_s3_account_settings-to-aws_account" style="stroke:#1A83AF;stroke-width:2.0;"/><polygon fill="#1A83AF" points="167.5,105.41,171.5,96.41,167.5,100.41,163.5,96.41,167.5,105.41" style="stroke:#1A83AF;stroke-width:2.0;"/></g><!--SRC=[XP1FQy904CNlVee5pu9fQDLB8HMalKYflPKYOtRMB4bsPMQisDBltlYlh8dHwtk_VU_DPbQZmd8bMrLYkK3Y3kVMhO2WL0cHtunzuKbrZG4J3-hcn3kv2KoXHFMCnHUAJQ5El6SspHqogxl0Ue8qNv9VEts85mB7bOLE0cfS07CYGdQn5Wp6wD5YQ4oTh8TsOnqD7h21UT98HwJVx-jeL4TkLbsz-v-OsMzKKVXfKo_OcDces5DNL-w8O6JZq9FVkl4LjBPkgUu3xUsmYHpIcJxBGFlDZZPGS5Z3WeHUjYiSDwx2qL2RmKNufGrETp-dOCDpIDFA5lNJ-GrKmgNrhYvwB_CrLwFFTOvFAND6aMe_xuamllVHZP9Xd4m-Uuz1mmtcLDXfgsayEH9_]--></g></svg>

<svg xmlns="http://www.w3.org/2000/svg" width="349" height="252" preserveAspectRatio="none" style="width:349px;height:252px"><rect width="149" height="39.789" x="93" y="106.79" fill="#3D176E" rx="2.5" ry="2.5" style="stroke:#000d19;stroke-width:.5"/><circle cx="108" cy="126.684" r="11" fill="#ADD1B2" style="stroke:#181818;stroke-width:1"/><path d="M110.969 132.325q-.578.297-1.219.438-.64.156-1.344.156-2.5 0-3.828-1.64-1.312-1.657-1.312-4.782t1.312-4.781q1.328-1.656 3.828-1.656.703 0 1.344.156.656.156 1.219.453v2.719q-.625-.579-1.219-.844-.594-.281-1.219-.281-1.344 0-2.031 1.078-.688 1.062-.688 3.156 0 2.094.688 3.172.688 1.062 2.031 1.062.625 0 1.219-.265.594-.281 1.219-.86v2.72Z"/><text x="127" y="132.57" fill="#D9B8FF" font-family="Helvetica" font-size="17" textLength="107">aws_account</text><rect width="137" height="39.789" x="7" y="206.58" fill="#3D176E" rx="2.5" ry="2.5" style="stroke:#000d19;stroke-width:.5"/><circle cx="22" cy="226.475" r="11" fill="#ADD1B2" style="stroke:#181818;stroke-width:1"/><path d="M24.969 232.115q-.578.297-1.219.438-.64.156-1.344.156-2.5 0-3.828-1.64-1.312-1.657-1.312-4.782t1.312-4.781q1.328-1.656 3.828-1.656.703 0 1.344.156.656.156 1.219.453v2.719q-.625-.578-1.219-.844-.594-.281-1.219-.281-1.343 0-2.031 1.078-.688 1.062-.688 3.156 0 2.094.688 3.172.688 1.062 2.031 1.062.625 0 1.219-.265.594-.281 1.219-.86v2.72Z"/><text x="41" y="232.36" fill="#D9B8FF" font-family="Helvetica" font-size="17" textLength="95">aws_region</text><rect width="163" height="39.789" x="179" y="206.58" fill="#3D176E" rx="2.5" ry="2.5" style="stroke:#000d19;stroke-width:.5"/><circle cx="194" cy="226.475" r="11" fill="#ADD1B2" style="stroke:#181818;stroke-width:1"/><path d="M196.969 232.115q-.578.297-1.219.438-.64.156-1.344.156-2.5 0-3.828-1.64-1.312-1.657-1.312-4.782t1.312-4.781q1.328-1.656 3.828-1.656.703 0 1.344.156.656.156 1.219.453v2.719q-.625-.578-1.219-.844-.594-.281-1.219-.281-1.344 0-2.031 1.078-.688 1.062-.688 3.156 0 2.094.688 3.172.688 1.062 2.031 1.062.625 0 1.219-.265.594-.281 1.219-.86v2.72Z"/><text x="213" y="232.36" fill="#D9B8FF" font-family="Helvetica" font-size="17" textLength="121">aws_root_user</text><rect width="252" height="39.789" x="41.5" y="7" fill="#3D176E" rx="2.5" ry="2.5" style="stroke:#000d19;stroke-width:.5"/><circle cx="56.5" cy="26.895" r="11" fill="#ADD1B2" style="stroke:#181818;stroke-width:1"/><path d="M59.469 32.535q-.578.297-1.219.438-.64.156-1.344.156-2.5 0-3.828-1.64-1.312-1.657-1.312-4.782t1.312-4.781q1.328-1.656 3.828-1.656.703 0 1.344.156.656.156 1.219.453v2.719q-.625-.578-1.219-.844-.594-.281-1.219-.281-1.343 0-2.031 1.078-.688 1.062-.688 3.156 0 2.094.688 3.172.688 1.062 2.031 1.062.625 0 1.219-.265.594-.281 1.219-.86v2.72Z"/><text x="75.5" y="32.78" fill="#D9B8FF" font-family="Helvetica" font-size="17" textLength="210">aws_s3_account_settings</text><path fill="none" d="M149.32 147.01c-14.87 15.8-35.95 38.21-51.78 55.04" style="stroke:#1a83af;stroke-width:2"/><path fill="#1A83AF" d="m94.64 205.2 9.081-3.812-5.654.171-.171-5.654-3.256 9.295z" style="stroke:#1a83af;stroke-width:2"/><path fill="none" d="M185.87 147.01c15.03 15.8 36.34 38.21 52.35 55.04" style="stroke:#1a83af;stroke-width:2"/><path fill="#1A83AF" d="m241.16 205.2-3.293-9.282-.148 5.655-5.655-.149 9.096 3.776z" style="stroke:#1a83af;stroke-width:2"/><path fill="none" d="M167.5 47.22v53.31" style="stroke:#1a83af;stroke-width:2"/><path fill="#1A83AF" d="m167.5 105.41 4-9-4 4-4-4 4 9z" style="stroke:#1a83af;stroke-width:2"/></svg>
